tools/download-figma-icons/icons/outlined-medium/e-scooter.svg

<svg width="25" height="24" viewBox="0 0 25 24" fill="none" xmlns="http://www.w3.org/2000/svg">
<path fill-rule="evenodd" clip-rule="evenodd" d="M20.9195 22.5C20.0495 22.5 19.337 21.7875 19.337 20.9175C19.337 20.475 19.5245 20.07 19.8245 19.785L20.1995 21.12C20.2895 21.45 20.5895 21.6675 20.9195 21.6675C20.987 21.6675 21.0545 21.66 21.122 21.6375C21.5195 21.525 21.752 21.1117 21.6395 20.715L21.2645 19.38C21.9695 19.5375 22.502 20.1675 22.502 20.9175C22.502 21.7875 21.7895 22.5 20.9195 22.5ZM19.037 11.0625C18.707 10.8075 18.6545 10.335 18.9095 10.005L19.5395 9.21H18.6695C18.392 9.21 18.1295 9.0525 18.002 8.805C17.8745 8.5575 17.897 8.2575 18.0545 8.025L19.457 6.045C19.697 5.7075 20.162 5.625 20.507 5.865C20.8445 6.0975 20.9195 6.57 20.687 6.9075L20.117 7.71H21.077C21.3695 7.71 21.632 7.875 21.752 8.13C21.8795 8.385 21.8495 8.6925 21.6695 8.9175L20.087 10.935C19.9445 11.1225 19.7195 11.22 19.502 11.22C19.337 11.22 19.172 11.1675 19.037 11.0625ZM3.56447 21.6675H4.92197C4.65947 22.1625 4.14197 22.5 3.54197 22.5C2.67197 22.5 1.96697 21.7875 1.96697 20.9175C1.96697 20.0467 2.67197 19.335 3.54197 19.335C4.14197 19.335 4.65947 19.68 4.92947 20.1675H3.56447C3.15197 20.1675 2.81447 20.505 2.81447 20.9175C2.81447 21.3375 3.15197 21.6675 3.56447 21.6675ZM20.9194 17.835C20.8894 17.835 20.8669 17.8425 20.8369 17.85L19.4869 13.065L22.7194 12.1575C23.0494 12.06 23.3269 11.8425 23.4994 11.535C23.6719 11.2343 23.7094 10.8825 23.6194 10.545L21.9769 4.7175C21.8794 4.38 21.6619 4.1025 21.3619 3.93C21.0544 3.765 20.7019 3.72 20.3719 3.8175L17.1394 4.725L16.1194 1.0875C15.9394 0.45 15.3469 0 14.6869 0H12.6694C12.2569 0 11.9194 0.3375 11.9194 0.75C11.9194 1.17 12.2569 1.5 12.6694 1.5L14.6719 1.4925L15.9019 5.85L17.8444 12.75L18.6619 15.6742L14.2819 20.0625C14.2144 20.13 14.1244 20.1675 14.0269 20.1675H8.81444C8.44694 17.5875 6.22694 15.585 3.54194 15.585C2.37944 15.585 1.22444 15.9825 0.294444 16.695C-0.0355557 16.9425 -0.0955557 17.415 0.151944 17.745C0.406944 18.075 0.879444 18.135 1.20944 17.88C1.87694 17.37 2.70194 17.085 3.54194 17.085C5.40194 17.085 6.94694 18.4125 7.29944 20.1675H6.51944C6.18194 18.8325 4.98194 17.835 3.54194 17.835C1.84694 17.835 0.466944 19.2225 0.466944 20.9175C0.466944 22.62 1.84694 24 3.54194 24C4.98194 24 6.18194 23.0025 6.51944 21.6675H14.0269C14.5219 21.6675 14.9869 21.48 15.3394 21.1275L19.1344 17.3325L19.3894 18.2625C18.4669 18.795 17.8369 19.7775 17.8369 20.9175C17.8369 22.62 19.2244 24 20.9194 24C22.6219 24 24.0019 22.62 24.0019 20.9175C24.0019 19.2225 22.6219 17.835 20.9194 17.835Z" fill="black"/>
</svg>

<svg width="25" height="24" viewBox="0 0 25 24" fill="none" xmlns="http://www.w3.org/2000/svg"><path fill-rule="evenodd" clip-rule="evenodd" d="M20.92 22.5c-.87 0-1.583-.712-1.583-1.582 0-.443.188-.848.488-1.133l.375 1.335a.745.745 0 0 0 .922.517.748.748 0 0 0 .518-.922l-.375-1.335a1.583 1.583 0 0 1 1.237 1.538c0 .87-.712 1.582-1.582 1.582Zm-1.883-11.438a.752.752 0 0 1-.127-1.057l.63-.795h-.87a.756.756 0 0 1-.668-.405.767.767 0 0 1 .053-.78l1.402-1.98a.755.755 0 0 1 1.05-.18.752.752 0 0 1 .18 1.042l-.57.803h.96c.292 0 .555.165.675.42a.734.734 0 0 1-.082.787l-1.583 2.018a.738.738 0 0 1-.585.285.757.757 0 0 1-.465-.158ZM3.564 21.669h1.358a1.56 1.56 0 0 1-1.38.832 1.58 1.58 0 0 1-1.575-1.582c0-.871.705-1.583 1.575-1.583.6 0 1.117.345 1.387.832H3.564a.752.752 0 0 0-.75.75c0 .42.338.75.75.75Zm17.355-3.833c-.03 0-.052.008-.082.015l-1.35-4.785 3.232-.907a1.314 1.314 0 0 0 .9-1.613l-1.642-5.827a1.323 1.323 0 0 0-.615-.788 1.306 1.306 0 0 0-.99-.113l-3.233.908-1.02-3.637A1.5 1.5 0 0 0 14.687 0h-2.018a.752.752 0 0 0-.75.75c0 .42.338.75.75.75l2.003-.008 1.23 4.358 1.942 6.9.818 2.924-4.38 4.389a.357.357 0 0 1-.255.105H8.814c-.367-2.58-2.587-4.583-5.272-4.583a5.38 5.38 0 0 0-3.248 1.11.751.751 0 0 0-.142 1.05c.255.33.727.39 1.057.135a3.86 3.86 0 0 1 2.333-.795 3.838 3.838 0 0 1 3.757 3.082h-.78a3.08 3.08 0 0 0-2.977-2.332 3.086 3.086 0 0 0-3.075 3.082A3.08 3.08 0 0 0 3.542 24a3.08 3.08 0 0 0 2.977-2.332h7.508c.495 0 .96-.188 1.312-.54l3.795-3.796.255.93a3.065 3.065 0 0 0-1.552 2.655 3.082 3.082 0 1 0 3.082-3.082Z" fill="currentColor"/></svg>
